;FLAVOR:Marlin
;TIME:2324
;Filament used: 1.97477m
;Layer height: 0.3
;MINX:119
;MINY:133.3
;MINZ:0.2
;MAXX:181
;MAXY:164
;MAXZ:40.1
;TARGET_MACHINE.NAME:Creality CR-10S Pro
;Generated with Cura_SteamEngine 5.7.1
M140 S50
M105
M190 S50
M104 S200
M105
M109 S200
M82 ;absolute extrusion mode
M201 X500.00 Y500.00 Z100.00 E5000.00 ;Setup machine max acceleration
M203 X500.00 Y500.00 Z10.00 E50.00 ;Setup machine max feedrate
M204 P500.00 R1000.00 T500.00 ;Setup Print/Retract/Travel acceleration
M205 X8.00 Y8.00 Z0.40 E5.00 ;Setup Jerk
M220 S100 ;Reset Feedrate
M221 S100 ;Reset Flowrate

G28 ;Home
G29 ;Auto bed Level
M420 S1 ;Save and use mesh

G92 E0 ;Reset Extruder
G1 Z2.0 F3000 ;Move Z Axis up
G1 X10.1 Y20 Z0.28 F5000.0 ;Move to start position
G1 X10.1 Y200.0 Z0.28 F1500.0 E15 ;Draw the first line
G1 X10.4 Y200.0 Z0.28 F5000.0 ;Move to side a little
G1 X10.4 Y20 Z0.28 F1500.0 E30 ;Draw the second line
G92 E0 ;Reset Extruder
G1 Z2.0 F3000 ;Move Z Axis up

G92 E0
G92 E0
G1 F2700 E-5
;LAYER_COUNT:134
;LAYER:0
M107
G0 F6000 X122.469 Y139.001 Z0.2
;TYPE:SKIRT
G1 F2700 E0
G1 F1200 X123.179 Y138.387 E0.03122
G1 X123.998 Y137.797 E0.06479
G1 X124.837 Y137.301 E0.09721
G1 X125.651 Y136.91 E0.12724
G1 X126.628 Y136.542 E0.16197
G1 X127.532 Y136.292 E0.19316
G1 X128.517 Y136.111 E0.22647
G1 X129.24 Y136.036 E0.25065
G1 X132.349 Y135.817 E0.35431
G1 X134.874 Y135.563 E0.43872
G1 X137.36 Y135.242 E0.52209
G1 X139.867 Y134.846 E0.60651
G1 X142.299 Y134.39 E0.6888
G1 X146.02 Y133.564 E0.81558
G1 X146.99 Y133.397 E0.84831
G1 X148.216 Y133.31 E0.88919
G1 X148.999 Y133.3 E0.91524
G1 X150.92 Y133.3 E0.97913
G1 X151.802 Y133.313 E1.00847
G1 X152.787 Y133.374 E1.04129
G1 X154.016 Y133.577 E1.08272
G1 X156.495 Y134.144 E1.16731
G1 X158.922 Y134.632 E1.24964
G1 X161.436 Y135.064 E1.33449
G1 X163.894 Y135.415 E1.41707
G1 X166.417 Y135.701 E1.50152
G1 X168.93 Y135.918 E1.58541
G1 X169.716 Y135.962 E1.6116
G1 X170.819 Y136.043 E1.64838
G1 X171.786 Y136.159 E1.68078
G1 X172.738 Y136.36 E1.71314
G1 X173.67 Y136.645 E1.74555
G1 X174.572 Y137.011 E1.77793
G1 X175.44 Y137.455 E1.81036
G1 X176.205 Y137.935 E1.84039
G1 X177.038 Y138.565 E1.87513
G1 X177.757 Y139.22 E1.90748
G1 X178.37 Y139.883 E1.93751
G1 X179.007 Y140.711 E1.97226
G1 X179.53 Y141.534 E2.00469
G1 X179.977 Y142.399 E2.03708
G1 X180.346 Y143.301 E2.06949
G1 X180.633 Y144.23 E2.10183
G1 X180.838 Y145.183 E2.13425
G1 X180.951 Y146.079 E2.16429
G1 X180.987 Y146.706 E2.18518
G1 X181 Y147.33 E2.20594
G1 X180.999 Y152.4 E2.37457
G1 X180.988 Y153.163 E2.39995
G1 X180.931 Y154.136 E2.43236
G1 X180.786 Y155.099 E2.46475
G1 X180.557 Y156.045 E2.49713
G1 X180.246 Y156.969 E2.52955
G1 X179.854 Y157.86 E2.56193
G1 X179.386 Y158.712 E2.59426
G1 X178.864 Y159.493 E2.6255
G1 X178.231 Y160.278 E2.65904
G1 X177.606 Y160.929 E2.68906
G1 X176.817 Y161.617 E2.72388
G1 X176.057 Y162.167 E2.75508
G1 X175.19 Y162.684 E2.78866
G1 X174.312 Y163.106 E2.82106
G1 X173.401 Y163.448 E2.85342
G1 X172.462 Y163.709 E2.88584
G1 X171.496 Y163.887 E2.91851
G1 X170.345 Y163.985 E2.95693
G1 X169.67 Y164 E2.97938
G1 X130.564 Y163.999 E4.28005
G1 X129.831 Y163.988 E4.30444
G1 X128.859 Y163.931 E4.33682
G1 X127.896 Y163.785 E4.36922
G1 X126.95 Y163.556 E4.40159
G1 X126.026 Y163.244 E4.43403
G1 X125.136 Y162.852 E4.46637
G1 X124.313 Y162.401 E4.49759
G1 X123.474 Y161.84 E4.53115
G1 X122.77 Y161.274 E4.5612
G1 X122.017 Y160.549 E4.59597
G1 X121.38 Y159.813 E4.62834
G1 X120.85 Y159.082 E4.65837
G1 X120.314 Y158.185 E4.69313
G1 X119.892 Y157.307 E4.72553
G1 X119.55 Y156.395 E4.75792
G1 X119.29 Y155.457 E4.7903
G1 X119.112 Y154.488 E4.82306
G1 X119.014 Y153.309 E4.86241
G1 X119 Y152.658 E4.88407
G1 X119.001 Y147.509 E5.05533
G1 X119.013 Y146.808 E5.07865
G1 X119.073 Y145.835 E5.11107
G1 X119.22 Y144.874 E5.1434
G1 X119.451 Y143.926 E5.17586
G1 X119.753 Y143.037 E5.20709
G1 X120.16 Y142.115 E5.24061
G1 X120.631 Y141.263 E5.27299
G1 X121.176 Y140.454 E5.30543
G1 X121.767 Y139.726 E5.33662
G1 X122.469 Y139.001 E5.37018
G0 F6000 X122.731 Y139.304
G1 F1200 X123.441 Y138.69 E5.4014
G1 X124.202 Y138.141 E5.43261
G1 X125.01 Y137.662 E5.46385
G1 X125.824 Y137.271 E5.49389
G1 X126.735 Y136.928 E5.52627
G1 X127.639 Y136.678 E5.55746
G1 X128.558 Y136.509 E5.58854
G1 X129.268 Y136.435 E5.61228
G1 X132.384 Y136.216 E5.71618
G1 X134.925 Y135.96 E5.80112
G1 X137.411 Y135.639 E5.88449
G1 X139.937 Y135.24 E5.96955
G1 X142.373 Y134.783 E6.05198
G1 X146.089 Y133.958 E6.17859
G1 X147.019 Y133.796 E6.20998
G1 X148.221 Y133.71 E6.25006
G1 X149.004 Y133.7 E6.27611
G1 X150.914 Y133.7 E6.33964
G1 X151.778 Y133.712 E6.36838
G1 X152.722 Y133.769 E6.39983
G1 X153.951 Y133.972 E6.44126
G1 X156.406 Y134.534 E6.52503
G1 X158.847 Y135.025 E6.60784
G1 X161.379 Y135.46 E6.69329
G1 X163.837 Y135.811 E6.77587
G1 X166.383 Y136.1 E6.8611
G1 X168.896 Y136.316 E6.94499
G1 X169.687 Y136.361 E6.97134
G1 X170.772 Y136.44 E7.00752
G1 X171.704 Y136.55 E7.03873
G1 X172.622 Y136.743 E7.06994
G1 X173.52 Y137.016 E7.10115
G1 X174.39 Y137.367 E7.13236
G1 X175.227 Y137.794 E7.16361
G1 X175.992 Y138.274 E7.19365
G1 X176.769 Y138.861 E7.22603
G1 X177.463 Y139.492 E7.25723
G1 X178.076 Y140.155 E7.28726
G1 X178.67 Y140.926 E7.31964
G1 X179.175 Y141.718 E7.35088
G1 X179.607 Y142.551 E7.38209
G1 X179.964 Y143.42 E7.41333
G1 X180.242 Y144.315 E7.4445
G1 X180.441 Y145.233 E7.47575
G1 X180.554 Y146.129 E7.50578
G1 X180.587 Y146.714 E7.52527
G1 X180.6 Y147.33 E7.54576
G1 X180.599 Y152.395 E7.71423
G1 X180.589 Y153.14 E7.73901
G1 X180.535 Y154.077 E7.77022
G1 X180.397 Y155.006 E7.80146
G1 X180.178 Y155.918 E7.83266
G1 X179.88 Y156.808 E7.86387
G1 X179.503 Y157.668 E7.89511
G1 X179.053 Y158.49 E7.92627
G1 X178.531 Y159.271 E7.95752
G1 X177.942 Y160.001 E7.98872
G1 X177.317 Y160.652 E8.01873
G1 X176.582 Y161.293 E8.05117
G1 X175.822 Y161.843 E8.08237
G1 X175.016 Y162.324 E8.11359
G1 X174.171 Y162.732 E8.1448
G1 X173.293 Y163.063 E8.17601
G1 X172.389 Y163.316 E8.20723
G1 X171.462 Y163.488 E8.23859
G1 X170.311 Y163.586 E8.27701
G1 X169.67 Y163.6 E8.29833
G1 X130.57 Y163.599 E9.59881
G1 X129.854 Y163.589 E9.62262
G1 X128.918 Y163.535 E9.65381
G1 X127.989 Y163.396 E9.68505
G1 X127.077 Y163.177 E9.71624
G1 X126.187 Y162.878 E9.74747
G1 X125.328 Y162.501 E9.77867
G1 X124.505 Y162.05 E9.80989
G1 X123.725 Y161.528 E9.8411
G1 X123.021 Y160.962 E9.87115
G1 X122.319 Y160.287 E9.90354
G1 X121.704 Y159.578 E9.93475
G1 X121.174 Y158.847 E9.96479
G1 X120.674 Y158.011 E9.99718
G1 X120.266 Y157.166 E10.02839
G1 X119.935 Y156.288 E10.0596
G1 X119.683 Y155.384 E10.09082
G1 X119.511 Y154.455 E10.12224
G1 X119.413 Y153.276 E10.16159
G1 X119.4 Y152.658 E10.18215
G1 X119.401 Y147.515 E10.35321
G1 X119.412 Y146.832 E10.37592
G1 X119.469 Y145.895 E10.40715
G1 X119.609 Y144.968 E10.43833
G1 X119.83 Y144.055 E10.46957
G1 X120.132 Y143.166 E10.5008
G1 X120.51 Y142.308 E10.53198
G1 X120.963 Y141.486 E10.5632
G1 X121.487 Y140.706 E10.59445
G1 X122.078 Y139.978 E10.62564
G1 X122.731 Y139.304 E10.65685
G0 F6000 X122.993 Y139.606
G1 F1200 X123.675 Y139.014 E10.68689
G1 X124.407 Y138.485 E10.71693
G1 X125.183 Y138.023 E10.74697
G1 X125.997 Y137.632 E10.777
G1 X126.842 Y137.313 E10.80704
G1 X127.712 Y137.071 E10.83708
G1 X128.6 Y136.907 E10.86711
G1 X129.296 Y136.834 E10.89039
G1 X132.419 Y136.615 E10.99452
G1 X134.976 Y136.357 E11.07999
G1 X137.462 Y136.036 E11.16337
G1 X140.007 Y135.634 E11.24906
G1 X142.447 Y135.176 E11.33163
G1 X146.158 Y134.352 E11.45807
G1 X147.048 Y134.195 E11.48813
G1 X148.226 Y134.11 E11.52741
G1 X149.009 Y134.1 E11.55345
G1 X150.909 Y134.1 E11.61665
G1 X151.755 Y134.111 E11.64479
G1 X152.657 Y134.164 E11.67484
G1 X153.886 Y134.367 E11.71627
G1 X156.317 Y134.924 E11.79922
G1 X158.772 Y135.418 E11.88251
G1 X161.322 Y135.856 E11.96857
G1 X163.78 Y136.207 E12.05115
G1 X166.349 Y136.499 E12.13715
G1 X168.862 Y136.714 E12.22103
G1 X169.658 Y136.76 E12.24755
G1 X170.725 Y136.837 E12.28313
G1 X171.622 Y136.942 E12.31317
G1 X172.506 Y137.126 E12.3432
G1 X173.371 Y137.387 E12.37326
G1 X174.209 Y137.724 E12.4033
G1 X175.014 Y138.133 E12.43333
G1 X175.779 Y138.613 E12.46337
G1 X176.5 Y139.157 E12.49341
G1 X177.169 Y139.764 E12.52345
G1 X177.782 Y140.427 E12.55349
G1 X178.333 Y141.142 E12.58351
G1 X178.82 Y141.903 E12.61356
G1 X179.237 Y142.704 E12.64359
G1 X179.582 Y143.539 E12.67364
G1 X179.851 Y144.401 E12.70368
G1 X180.044 Y145.283 E12.73371
G1 X180.157 Y146.179 E12.76374
G1 X180.187 Y146.723 E12.78186
G1 X180.2 Y147.33 E12.80206
G1 X180.199 Y152.39 E12.97035
G1 X180.19 Y153.117 E12.99454
G1 X180.139 Y154.019 E13.02459
G1 X180.008 Y154.913 E13.05464
G1 X179.799 Y155.791 E13.08466
G1 X179.513 Y156.648 E13.1147
G1 X179.152 Y157.476 E13.14475
G1 X178.72 Y158.268 E13.17475
G1 X178.219 Y159.02 E13.20481
G1 X177.653 Y159.724 E13.23485
G1 X177.028 Y160.375 E13.26487
G1 X176.347 Y160.969 E13.29492
G1 X175.616 Y161.5 E13.32497
G1 X174.842 Y161.964 E13.35499
G1 X174.029 Y162.358 E13.38504
G1 X173.185 Y162.678 E13.41506
G1 X172.315 Y162.923 E13.44512
G1 X171.428 Y163.089 E13.47514
G1 X170.277 Y163.187 E13.51356
G1 X169.67 Y163.2 E13.53375
G1 X130.575 Y163.199 E14.83405
G1 X129.877 Y163.19 E14.85727
G1 X128.976 Y163.139 E14.88729
G1 X128.082 Y163.007 E14.91734
G1 X127.204 Y162.798 E14.94736
G1 X126.347 Y162.511 E14.97742
G1 X125.52 Y162.15 E15.00744
G1 X124.727 Y161.717 E15.03749
G1 X123.976 Y161.216 E15.06751
G1 X123.272 Y160.65 E15.09756
G1 X122.621 Y160.024 E15.1276
G1 X122.028 Y159.343 E15.15763
G1 X121.498 Y158.612 E15.18766
G1 X121.034 Y157.837 E15.2177
G1 X120.64 Y157.024 E15.24775
G1 X120.32 Y156.18 E15.27777
G1 X120.076 Y155.31 E15.30783
G1 X119.91 Y154.422 E15.33787
G1 X119.813 Y153.267 E15.37642
G1 X119.8 Y152.658 E15.39668
G1 X119.801 Y147.521 E15.56754
G1 X119.811 Y146.856 E15.58966
G1 X119.865 Y145.954 E15.61972
G1 X119.998 Y145.061 E15.64975
G1 X120.209 Y144.183 E15.67978
G1 X120.498 Y143.327 E15.70983
G1 X120.861 Y142.5 E15.73987
G1 X121.295 Y141.709 E15.76988
G1 X121.798 Y140.958 E15.79994
G1 X122.366 Y140.256 E15.82997
G1 X122.993 Y139.606 E15.86001
G1 F2700 E10.86001
G0 F6000 X146.638 Y145.766
G1 F2700 E15.86001
G1 F1200 X147.259 Y145.471 E15.88288
G1 X147.266 Y145.467 E15.88315
G1 X147.604 Y145.289 E15.89585
G1 X147.627 Y145.275 E15.89675
G1 X148.017 Y144.998 E15.91266
G1 X148.026 Y144.992 E15.91302
G1 X148.432 Y144.669 E15.93027
G1 X148.501 Y144.561 E15.93454
G1 X148.517 Y144.5 E15.93663
G1 X151.478 Y144.5 E16.03512
G1 X151.492 Y144.536 E16.0364
G1 X151.548 Y144.615 E16.03962
G1 X151.932 Y144.95 E16.05657
G1 X151.946 Y144.961 E16.05716
G1 X152.297 Y145.214 E16.07155
G1 X152.312 Y145.224 E16.07215
G1 X152.707 Y145.459 E16.08744
G1 X152.717 Y145.465 E16.08783
G1 X153.309 Y145.772 E16.11001
G1 X153.253 Y146 E16.11782
G1 X146.691 Y146 E16.33607
G1 X146.638 Y145.766 E16.34405
G0 F6000 X147.859 Y145.6
G1 F1200 X148.248 Y145.324 E16.35991
G1 X148.275 Y145.305 E16.36101
G1 X148.681 Y144.982 E16.37827
G1 X148.752 Y144.9 E16.38188
G1 X151.274 Y144.9 E16.46576
G1 X151.285 Y144.916 E16.4664
G1 X151.669 Y145.251 E16.48335
G1 X151.712 Y145.286 E16.4852
G1 X152.063 Y145.539 E16.49959
G1 X152.107 Y145.568 E16.50134
G1 X152.161 Y145.6 E16.50343
G1 X147.859 Y145.6 E16.64651
G1 F2700 E11.64651
;MESH:moule.stl
G0 F6000 X147.859 Y147.42
G0 X169.4 Y152.4
;TYPE:WALL-INNER
G1 F2700 E16.64651
G1 F1200 X169.4 Y147.6 E16.80616
G1 X130.6 Y147.6 E18.09666
G1 X130.6 Y152.4 E18.2563
G1 X169.4 Y152.4 E19.5468
G0 F6000 X169.8 Y152.8
;TYPE:WALL-OUTER
G1 F1200 X169.8 Y147.2 E19.73305
G1 X130.2 Y147.2 E21.05016
G1 X130.2 Y152.8 E21.23641
G1 X169.8 Y152.8 E22.55351
G0 F6000 X169.53 Y152.53
G0 X169.3 Y152.04
G0 X169.04 Y152.04
;TYPE:SKIN
G1 F1200 X130.96 Y152.04 E23.82006
G1 X130.96 Y147.96 E23.95576
G1 X169.04 Y147.96 E25.22231
G1 X169.04 Y152.04 E25.35801
G0 F6000 X169.3 Y152.04
G0 X169.228 Y147.772
G0 X168.525 Y147.7
G0 X168.525 Y148.16
G1 F1200 X168.84 Y148.475 E25.37282
G0 F6000 X168.84 Y149.041
G1 F1200 X167.959 Y148.16 E25.41426
G0 F6000 X167.393 Y148.16
G1 F1200 X168.84 Y149.607 E25.48233
G0 F6000 X168.84 Y150.173
G1 F1200 X166.828 Y148.16 E25.57699
G0 F6000 X166.262 Y148.16
G1 F1200 X168.84 Y150.738 E25.69825
G0 F6000 X168.84 Y151.304
G1 F1200 X165.696 Y148.16 E25.84613
G0 F6000 X165.131 Y148.16
G1 F1200 X168.81 Y151.84 E26.01921
G0 F6000 X168.245 Y151.84
G1 F1200 X164.565 Y148.16 E26.1923
G0 F6000 X163.999 Y148.16
G1 F1200 X167.679 Y151.84 E26.3654
G0 F6000 X167.113 Y151.84
G1 F1200 X163.434 Y148.16 E26.53847
G0 F6000 X162.868 Y148.16
G1 F1200 X166.548 Y151.84 E26.71157
G0 F6000 X165.982 Y151.84
G1 F1200 X162.302 Y148.16 E26.88466
G0 F6000 X161.737 Y148.16
G1 F1200 X165.416 Y151.84 E27.05773
G0 F6000 X164.851 Y151.84
G1 F1200 X161.171 Y148.16 E27.23083
G0 F6000 X160.605 Y148.16
G1 F1200 X164.285 Y151.84 E27.40393
G0 F6000 X163.719 Y151.84
G1 F1200 X160.039 Y148.16 E27.57702
G0 F6000 X159.474 Y148.16
G1 F1200 X163.154 Y151.84 E27.75012
G0 F6000 X162.588 Y151.84
G1 F1200 X158.908 Y148.16 E27.92321
G0 F6000 X158.342 Y148.16
G1 F1200 X162.022 Y151.84 E28.09631
G0 F6000 X161.457 Y151.84
G1 F1200 X157.777 Y148.16 E28.26941
G0 F6000 X157.211 Y148.16
G1 F1200 X160.891 Y151.84 E28.4425
G0 F6000 X160.325 Y151.84
G1 F1200 X156.645 Y148.16 E28.6156
G0 F6000 X156.08 Y148.16
G1 F1200 X159.759 Y151.84 E28.78867
G0 F6000 X159.194 Y151.84
G1 F1200 X155.514 Y148.16 E28.96177
G0 F6000 X154.948 Y148.16
G1 F1200 X158.628 Y151.84 E29.13486
G0 F6000 X158.062 Y151.84
G1 F1200 X154.383 Y148.16 E29.30793
G0 F6000 X153.817 Y148.16
G1 F1200 X157.497 Y151.84 E29.48103
G0 F6000 X156.931 Y151.84
G1 F1200 X153.251 Y148.16 E29.65413
G0 F6000 X152.686 Y148.16
G1 F1200 X156.365 Y151.84 E29.8272
G0 F6000 X155.8 Y151.84
G1 F1200 X152.12 Y148.16 E30.0003
G0 F6000 X151.554 Y148.16
G1 F1200 X155.234 Y151.84 E30.17339
G0 F6000 X154.668 Y151.84
G1 F1200 X150.989 Y148.16 E30.34646
G0 F6000 X150.423 Y148.16
G1 F1200 X154.103 Y151.84 E30.51956
G0 F6000 X153.537 Y151.84
G1 F1200 X149.857 Y148.16 E30.69266
G0 F6000 X149.291 Y148.16
G1 F1200 X152.971 Y151.84 E30.86575
G0 F6000 X152.406 Y151.84
G1 F1200 X148.726 Y148.16 E31.03885
G0 F6000 X148.16 Y148.16
G1 F1200 X151.84 Y151.84 E31.21194
G0 F6000 X151.274 Y151.84
G1 F1200 X147.594 Y148.16 E31.38504
G0 F6000 X147.029 Y148.16
G1 F1200 X150.708 Y151.84 E31.55811
G0 F6000 X150.143 Y151.84
G1 F1200 X146.463 Y148.16 E31.73121
G0 F6000 X145.897 Y148.16
G1 F1200 X149.577 Y151.84 E31.9043
G0 F6000 X149.011 Y151.84
G1 F1200 X145.332 Y148.16 E32.07738
G0 F6000 X144.766 Y148.16
G1 F1200 X148.446 Y151.84 E32.25047
G0 F6000 X147.88 Y151.84
G1 F1200 X144.2 Y148.16 E32.42357
G0 F6000 X143.635 Y148.16
G1 F1200 X147.314 Y151.84 E32.59664
G0 F6000 X146.749 Y151.84
G1 F1200 X143.069 Y148.16 E32.76974
G0 F6000 X142.503 Y148.16
G1 F1200 X146.183 Y151.84 E32.94283
G0 F6000 X145.617 Y151.84
G1 F1200 X141.938 Y148.16 E33.1159
G0 F6000 X141.372 Y148.16
G1 F1200 X145.052 Y151.84 E33.289
G0 F6000 X144.486 Y151.84
G1 F1200 X140.806 Y148.16 E33.4621
G0 F6000 X140.24 Y148.16
G1 F1200 X143.92 Y151.84 E33.63519
G0 F6000 X143.355 Y151.84
G1 F1200 X139.675 Y148.16 E33.80829
G0 F6000 X139.109 Y148.16
G1 F1200 X142.789 Y151.84 E33.98138
G0 F6000 X142.223 Y151.84
G1 F1200 X138.543 Y148.16 E34.15448
G0 F6000 X137.978 Y148.16
G1 F1200 X141.658 Y151.84 E34.32758
G0 F6000 X141.092 Y151.84
G1 F1200 X137.412 Y148.16 E34.50067
G0 F6000 X136.846 Y148.16
G1 F1200 X140.526 Y151.84 E34.67377
G0 F6000 X139.96 Y151.84
G1 F1200 X136.281 Y148.16 E34.84684
G0 F6000 X135.715 Y148.16
G1 F1200 X139.395 Y151.84 E35.01994
G0 F6000 X138.829 Y151.84
G1 F1200 X135.149 Y148.16 E35.19303
G0 F6000 X134.584 Y148.16
G1 F1200 X138.263 Y151.84 E35.3661
G0 F6000 X137.698 Y151.84
G1 F1200 X134.018 Y148.16 E35.5392
G0 F6000 X133.452 Y148.16
G1 F1200 X137.132 Y151.84 E35.7123
G0 F6000 X136.566 Y151.84
G1 F1200 X132.887 Y148.16 E35.88537
G0 F6000 X132.321 Y148.16
G1 F1200 X136.001 Y151.84 E36.05846
G0 F6000 X135.435 Y151.84
G1 F1200 X131.755 Y148.16 E36.23156
G0 F6000 X131.19 Y148.16
G1 F1200 X134.869 Y151.84 E36.40463
G0 F6000 X134.304 Y151.84
G1 F1200 X131.16 Y148.696 E36.55252
G0 F6000 X131.16 Y149.262
G1 F1200 X133.738 Y151.84 E36.67378
G0 F6000 X133.172 Y151.84
