; HEADER_BLOCK_START
; BambuStudio 01.09.03.50
; estimated printing time (normal mode) = 28m 46s
; total layer number: 187
; filament_density: 1.24
; filament_diameter: 1.75
; max_z_height: 30.08
; HEADER_BLOCK_END

; CONFIG_BLOCK_START
; accel_to_decel_enable = 0
; accel_to_decel_factor = 50%
; activate_air_filtration = 0
; additional_cooling_fan_speed = 70
; auxiliary_fan = 0
; bed_custom_model = 
; bed_custom_texture = 
; bed_exclude_area = 0x0
; before_layer_change_gcode = 
; best_object_pos = 0.5,0.5
; bottom_shell_layers = 3
; bottom_shell_thickness = 0
; bottom_surface_pattern = monotonic
; bridge_angle = 0
; bridge_flow = 0.95
; bridge_no_support = 0
; bridge_speed = 25
; brim_object_gap = 0.1
; brim_type = auto_brim
; brim_width = 5
; chamber_temperatures = 0
; change_filament_gcode = 
; close_fan_the_first_x_layers = 1
; complete_print_exhaust_fan_speed = 80
; cool_plate_temp = 60
; cool_plate_temp_initial_layer = 60
; curr_bed_type = High Temp Plate
; default_acceleration = 500
; default_filament_colour = ""
; default_filament_profile = "Generic PLA @Creality"
; default_jerk = 0
; default_print_profile = 0.20mm Standard @Creality CR10Max
; deretraction_speed = 40
; detect_narrow_internal_solid_infill = 1
; detect_overhang_wall = 1
; detect_thin_wall = 0
; different_settings_to_system = ;;max_layer_height;min_layer_height
; draft_shield = disabled
; during_print_exhaust_fan_speed = 60
; elefant_foot_compensation = 0
; enable_arc_fitting = 0
; enable_long_retraction_when_cut = 0
; enable_overhang_bridge_fan = 1
; enable_overhang_speed = 1
; enable_pressure_advance = 0
; enable_prime_tower = 0
; enable_support = 0
; enforce_support_layers = 0
; eng_plate_temp = 60
; eng_plate_temp_initial_layer = 60
; ensure_vertical_shell_thickness = 1
; exclude_object = 1
; extruder_clearance_height_to_lid = 34
; extruder_clearance_height_to_rod = 34
; extruder_clearance_max_radius = 68
; extruder_clearance_radius = 47
; extruder_colour = #FCE94F
; extruder_offset = 0x0
; extruder_type = Bowden
; fan_cooling_layer_time = 100
; fan_max_speed = 100
; fan_min_speed = 100
; filament_colour = #00AE42
; filament_cost = 20
; filament_density = 1.24
; filament_diameter = 1.75
; filament_end_gcode = "; filament end gcode \n"
; filament_flow_ratio = 0.98
; filament_ids = GFL99
; filament_is_support = 0
; filament_max_volumetric_speed = 12
; filament_minimal_purge_on_wipe_tower = 15
; filament_notes = 
; filament_settings_id = "Generic PLA @Creality"
; filament_soluble = 0
; filament_start_gcode = "; filament start gcode\n"
; filament_type = PLA
; filament_vendor = Generic
; filename_format = {input_filename_base}_{filament_type[0]}_{print_time}.gcode
; filter_out_gap_fill = 0
; first_layer_print_sequence = 0
; flush_into_infill = 0
; flush_into_objects = 0
; flush_into_support = 1
; flush_multiplier = 1
; flush_volumes_matrix = 0
; flush_volumes_vector = 140,140
; full_fan_speed_layer = 0
; fuzzy_skin = none
; fuzzy_skin_point_distance = 0.8
; fuzzy_skin_thickness = 0.3
; gap_infill_speed = 30
; gcode_add_line_number = 0
; gcode_flavor = marlin
; has_scarf_joint_seam = 0
; head_wrap_detect_zone = 
; host_type = octoprint
; hot_plate_temp = 60
; hot_plate_temp_initial_layer = 60
; independent_support_layer_height = 1
; infill_combination = 0
; infill_direction = 45
; infill_jerk = 9
; infill_wall_overlap = 23%
; inherits_group = ;;"Creality CR-10 Max 0.4 nozzle"
; initial_layer_acceleration = 500
; initial_layer_flow_ratio = 1
; initial_layer_infill_speed = 20
; initial_layer_jerk = 9
; initial_layer_line_width = 0.5
; initial_layer_print_height = 0.2
; initial_layer_speed = 15
; inner_wall_acceleration = 500
; inner_wall_jerk = 9
; inner_wall_line_width = 0.45
; inner_wall_speed = 40
; interface_shells = 0
; internal_bridge_support_thickness = 0
; internal_solid_infill_line_width = 0.4
; internal_solid_infill_pattern = zig-zag
; internal_solid_infill_speed = 40
; ironing_direction = 45
; ironing_flow = 15%
; ironing_pattern = zig-zag
; ironing_spacing = 0.1
; ironing_speed = 15
; ironing_type = no ironing
; is_infill_first = 0
; layer_change_gcode = 
; layer_height = 0.2
; line_width = 0.4
; long_retractions_when_cut = 0
; machine_end_gcode = {if max_layer_z < printable_height}G1 Z{min(max_layer_z+2, printable_height)} F600 ; Move print head up{endif}\nG1 X5 Y{print_bed_max[1]*0.8} F{travel_speed*60} ; present print\n{if max_layer_z < printable_height-10}G1 Z{min(max_layer_z+70, printable_height-10)} F600 ; Move print head further up{endif}\n{if max_layer_z < printable_height*0.6}G1 Z{printable_height*0.6} F600 ; Move print head further up{endif}\nM140 S0 ; turn off heatbed\nM104 S0 ; turn off temperature\nM107 ; turn off fan\nM84 X Y E ; disable motors
; machine_load_filament_time = 0
; machine_max_acceleration_e = 5000,5000
; machine_max_acceleration_extruding = 500,500
; machine_max_acceleration_retracting = 1000,1000
; machine_max_acceleration_travel = 500,500
; machine_max_acceleration_x = 500,500
; machine_max_acceleration_y = 500,500
; machine_max_acceleration_z = 100,100
; machine_max_jerk_e = 5,5
; machine_max_jerk_x = 8,8
; machine_max_jerk_y = 8,8
; machine_max_jerk_z = 0.4,0.4
; machine_max_speed_e = 60,60
; machine_max_speed_x = 500,500
; machine_max_speed_y = 500,500
; machine_max_speed_z = 10,10
; machine_min_extruding_rate = 0,0
; machine_min_travel_rate = 0,0
; machine_pause_gcode = M25 ;pause print
; machine_start_gcode = G90 ; use absolute coordinates\nM83 ; extruder relative mode\nM140 S[bed_temperature_initial_layer] ; set final bed temp\nM104 S150 ; set temporary nozzle temp to prevent oozing during homing\nG4 S10 ; allow partial nozzle warmup\nG28 ; home all axis\nG1 Z50 F240\nG1 X2 Y10 F3000\nM104 S[nozzle_temperature_initial_layer] ; set final nozzle temp\nM190 S[bed_temperature_initial_layer] ; wait for bed temp to stabilize\nM109 S[nozzle_temperature_initial_layer] ; wait for nozzle temp to stabilize\nG1 Z0.28 F240\nG92 E0\nG1 Y140 E10 F1500 ; prime the nozzle\nG1 X2.3 F5000\nG92 E0\nG1 Y10 E10 F1200 ; prime the nozzle\nG92 E0
; machine_unload_filament_time = 0
; max_bridge_length = 10
; max_layer_height = 0.41
; max_travel_detour_distance = 0
; min_bead_width = 85%
; min_feature_size = 25%
; min_layer_height = 0.05
; minimum_sparse_infill_area = 15
; mmu_segmented_region_interlocking_depth = 0
; mmu_segmented_region_max_width = 0
; nozzle_diameter = 0.4
; nozzle_height = 4
; nozzle_temperature = 220
; nozzle_temperature_initial_layer = 220
; nozzle_temperature_range_high = 230
; nozzle_temperature_range_low = 190
; nozzle_type = undefine
; nozzle_volume = 0
; only_one_wall_first_layer = 0
; ooze_prevention = 0
; other_layers_print_sequence = 0
; other_layers_print_sequence_nums = 0
; outer_wall_acceleration = 500
; outer_wall_jerk = 9
; outer_wall_line_width = 0.4
; outer_wall_speed = 25
; overhang_1_4_speed = 0
; overhang_2_4_speed = 20
; overhang_3_4_speed = 15
; overhang_4_4_speed = 10
; overhang_fan_speed = 100
; overhang_fan_threshold = 50%
; post_process = 
; precise_z_height = 0
; pressure_advance = 0.02
; prime_tower_brim_width = 3
; prime_tower_width = 35
; prime_volume = 45
; print_compatible_printers = "Creality CR-10 Max 0.4 nozzle"
; print_flow_ratio = 1
; print_sequence = by layer
; print_settings_id = 0.20mm Standard @Creality CR10Max
; printable_area = 0x0,450x0,450x450,0x450
; printable_height = 470
; printer_model = Creality CR-10 Max
; printer_notes = 
; printer_settings_id = Creality CR-10 Max 0.4 nozzle - Copie
; printer_structure = undefine
; printer_technology = FFF
; printer_variant = 0.4
; printhost_authorization_type = key
; printhost_ssl_ignore_revoke = 0
; printing_by_object_gcode = 
; process_notes = 
; raft_contact_distance = 0.1
; raft_expansion = 1.5
; raft_first_layer_density = 90%
; raft_first_layer_expansion = 2
; raft_layers = 0
; reduce_crossing_wall = 0
; reduce_fan_stop_start_freq = 1
; reduce_infill_retraction = 1
; required_nozzle_HRC = 3
; resolution = 0.012
; retract_before_wipe = 70%
; retract_length_toolchange = 2
; retract_lift_above = 0
; retract_lift_below = 469
; retract_restart_extra = 0
; retract_restart_extra_toolchange = 0
; retract_when_changing_layer = 1
; retraction_distances_when_cut = 18
; retraction_length = 5
; retraction_minimum_travel = 2
; retraction_speed = 60
; scan_first_layer = 0
; scarf_angle_threshold = 155
; seam_gap = 15%
; seam_position = aligned
; seam_slope_conditional = 1
; seam_slope_entire_loop = 0
; seam_slope_inner_walls = 1
; seam_slope_min_length = 10
; seam_slope_start_height = 50%
; seam_slope_steps = 10
; seam_slope_type = none
; silent_mode = 0
; single_extruder_multi_material = 1
; skirt_distance = 2
; skirt_height = 1
; skirt_loops = 1
; slice_closing_radius = 0.049
; slicing_mode = regular
; slow_down_for_layer_cooling = 1
; slow_down_layer_time = 8
; slow_down_min_speed = 10
; small_perimeter_speed = 50%
; small_perimeter_threshold = 0
; solid_infill_filament = 1
; sparse_infill_acceleration = 100%
; sparse_infill_anchor = 400%
; sparse_infill_anchor_max = 20
; sparse_infill_density = 15%
; sparse_infill_filament = 1
; sparse_infill_line_width = 0.45
; sparse_infill_pattern = grid
; sparse_infill_speed = 50
; spiral_mode = 0
; spiral_mode_max_xy_smoothing = 200%
; spiral_mode_smooth = 0
; standby_temperature_delta = -5
; start_end_points = 30x-3,54x245
; support_air_filtration = 0
; support_angle = 0
; support_base_pattern = default
; support_base_pattern_spacing = 2.5
; support_bottom_interface_spacing = 0.5
; support_bottom_z_distance = 0.2
; support_chamber_temp_control = 0
; support_critical_regions_only = 0
; support_expansion = 0
; support_filament = 0
; support_interface_bottom_layers = 0
; support_interface_filament = 0
; support_interface_loop_pattern = 0
; support_interface_not_for_body = 1
; support_interface_pattern = auto
; support_interface_spacing = 0.5
; support_interface_speed = 80
; support_interface_top_layers = 3
; support_line_width = 0.4
; support_object_first_layer_gap = 0.2
; support_object_xy_distance = 0.35
; support_on_build_plate_only = 0
; support_remove_small_overhang = 1
; support_speed = 150
; support_style = default
; support_threshold_angle = 30
; support_top_z_distance = 0.2
; support_type = normal(auto)
; temperature_vitrification = 60
; template_custom_gcode = 
; textured_plate_temp = 60
; textured_plate_temp_initial_layer = 60
; thick_bridges = 0
; thumbnail_size = 50x50
; time_lapse_gcode = 
; timelapse_type = 0
; top_area_threshold = 100%
; top_one_wall_type = all top
; top_shell_layers = 4
; top_shell_thickness = 0.8
; top_solid_infill_flow_ratio = 1
; top_surface_acceleration = 500
; top_surface_jerk = 9
; top_surface_line_width = 0.4
; top_surface_pattern = monotonic
; top_surface_speed = 30
; travel_jerk = 9
; travel_speed = 150
; travel_speed_z = 0
; tree_support_branch_angle = 40
; tree_support_branch_diameter = 5
; tree_support_branch_distance = 5
; tree_support_brim_width = 0
; tree_support_wall_count = 0
; upward_compatible_machine = 
; use_firmware_retraction = 0
; use_relative_e_distances = 1
; wall_distribution_count = 1
; wall_filament = 1
; wall_generator = arachne
; wall_loops = 3
; wall_sequence = inner wall/outer wall
; wall_transition_angle = 10
; wall_transition_filter_deviation = 25%
; wall_transition_length = 100%
; wipe = 1
; wipe_distance = 2
; wipe_speed = 80%
; wipe_tower_no_sparse_layers = 0
; wipe_tower_rotation_angle = 0
; wipe_tower_x = 0
; wipe_tower_y = 250
; xy_contour_compensation = 0
; xy_hole_compensation = 0
; z_hop = 0.4
; z_hop_types = Normal Lift
; CONFIG_BLOCK_END

; THUMBNAIL_BLOCK_START
; THUMBNAIL_BLOCK_END

; EXECUTABLE_BLOCK_START
M73 P0 R28
M201 X500 Y500 Z100 E5000
M203 X500 Y500 Z10 E60
M204 P500 R1000 T500
M205 X8.00 Y8.00 Z0.40 E5.00
M106 S0
M106 P2 S0
; FEATURE: Custom
G90 ; use absolute coordinates
M83 ; extruder relative mode
M140 S60 ; set final bed temp
M104 S150 ; set temporary nozzle temp to prevent oozing during homing
G4 S10 ; allow partial nozzle warmup
G28 ; home all axis
G1 Z50 F240
G1 X2 Y10 F3000
M104 S220 ; set final nozzle temp
M190 S60 ; wait for bed temp to stabilize
M109 S220 ; wait for nozzle temp to stabilize
G1 Z0.28 F240
G92 E0
G1 Y140 E10 F1500 ; prime the nozzle
M73 P1 R28
G1 X2.3 F5000
G92 E0
G1 Y10 E10 F1200 ; prime the nozzle
G92 E0
G90
G21
M83 ; use relative distances for extrusion
; filament start gcode
; CHANGE_LAYER
; Z_HEIGHT: 0.2
; LAYER_HEIGHT: 0.2
G1 E-5 F3600
M106 S0
M106 P2 S0
M204 S500
M73 P2 R28
G1 Z.4 F9000
G1 X212.935 Y222.169
G1 Z.4
G1 Z.2
G1 E5 F2400
; FEATURE: Skirt
; LINE_WIDTH: 0.5
G1 F900
G1 X213.985 Y221.262 E.05169
G1 X215 Y221.043 E.03866
G1 X235 Y221.043 E.74492
G1 X236.331 Y221.435 E.05169
G1 X237.238 Y222.485 E.05169
G1 X237.457 Y223.5 E.03866
G1 X237.457 Y226.5 E.11174
G1 X237.065 Y227.831 E.05169
G1 X236.015 Y228.738 E.05169
G1 X235 Y228.957 E.03866
G1 X215 Y228.957 E.74492
G1 X213.669 Y228.565 E.05169
G1 X212.762 Y227.515 E.05169
G1 X212.543 Y226.5 E.03866
G1 X212.543 Y223.5 E.11174
G1 X212.918 Y222.226 E.04945
G1 E-3.5 F3600
; WIPE_START
G1 F7200
G1 X213.985 Y221.262 E-1.02492
G1 X214.534 Y221.144 E-.40008
; WIPE_END
G1 E-.075 F3600
G1 Z.6 F9000
G1 X233.782 Y225.282 Z.6
G1 Z.2
G1 E5 F2400
; FEATURE: Inner wall
; LINE_WIDTH: 0.607303
G1 F900
G1 X216.218 Y225.282 E.80779
G1 X216.218 Y224.718 E.02596
G1 X233.782 Y224.718 E.80779
G1 X233.782 Y225 E.01298
M73 P2 R27
G1 X233.782 Y225.222 E.01022
G1 X234.293 Y225.793 F9000
; LINE_WIDTH: 0.499999
G1 F900
G1 X215.707 Y225.793 E.69225
G1 X215.707 Y224.207 E.05907
G1 X234.293 Y224.207 E.69225
G1 X234.293 Y225 E.02953
G1 X234.293 Y225.733 E.0273
G1 X234.75 Y226.25 F9000
; FEATURE: Outer wall
G1 F900
G1 X215.25 Y226.25 E.7263
G1 X215.25 Y223.75 E.09312
G1 X234.75 Y223.75 E.7263
G1 X234.75 Y225 E.04656
M73 P3 R27
G1 X234.75 Y226.19 E.04432
; CHANGE_LAYER
; Z_HEIGHT: 0.6
; LAYER_HEIGHT: 0.4
G1 E-3.5 F3600
; WIPE_START
G1 F7200
G1 X232.75 Y226.196 E-1.425
; WIPE_END
G1 E-.075 F3600
M106 S255
M106 P2 S178
G1 Z.6 F9000
G1 X234.097 Y225.597 Z.6
G1 E5 F2400
; FEATURE: Inner wall
; LINE_WIDTH: 0.45
G1 F1281
G1 X215.903 Y225.597 E1.07975
G1 X215.903 Y224.403 E.07082
G1 X234.097 Y224.403 E1.07975
G1 X234.097 Y225 E.03541
G1 X234.097 Y225.537 E.03185
G1 X234.461 Y225.961 F9000
G1 F1281
G1 X215.539 Y225.961 E1.12298
G1 X215.539 Y224.039 E.11405
G1 X234.461 Y224.039 E1.12298
G1 X234.461 Y225 E.05702
G1 X234.461 Y225.901 E.05346
G1 X234.8 Y226.3 F9000
; FEATURE: Outer wall
; LINE_WIDTH: 0.4
G1 F1281
G1 X215.2 Y226.3 E1.00352
G1 X215.2 Y223.7 E.13312
G1 X234.8 Y223.7 E1.00352
G1 X234.8 Y225 E.06656
G1 X234.8 Y226.24 E.06349
G1 X233.707 Y225 F9000
; FEATURE: Internal solid infill
; LINE_WIDTH: 0.500447
G1 F1281
G1 X233.707 Y224.793 E.01401
G1 X216.293 Y224.793 E1.17671
G1 X216.293 Y225.207 E.02802
G1 X233.707 Y225.207 E1.17671
G1 X233.707 Y225.06 E.00995
; CHANGE_LAYER
; Z_HEIGHT: 0.964032
; LAYER_HEIGHT: 0.364032
G1 E-3.5 F3600
; WIPE_START
G1 F7200
G1 X233.707 Y225.207 E-.10495
G1 X231.855 Y225.207 E-1.32005
; WIPE_END
G1 E-.075 F3600
G1 Z1 F9000
G1 X234.081 Y225.581 Z1
G1 Z.964
G1 E5 F2400
; FEATURE: Inner wall
; LINE_WIDTH: 0.45
G1 F1280
G1 X215.919 Y225.581 E1.00179
G1 X215.919 Y224.419 E.06412
G1 X234.081 Y224.419 E1.00179
G1 X234.081 Y225 E.03206
G1 X234.081 Y225.521 E.02875
G1 X234.453 Y225.953 F9000
G1 F1280
G1 X215.547 Y225.953 E1.04281
G1 X215.547 Y224.047 E.10514
G1 X234.453 Y224.047 E1.04281
G1 X234.453 Y225 E.05257
G1 X234.453 Y225.893 E.04926
G1 X234.8 Y226.3 F9000
; FEATURE: Outer wall
; LINE_WIDTH: 0.4
G1 F1280
G1 X215.2 Y226.3 E.93572
G1 X215.2 Y223.7 E.12413
G1 X234.8 Y223.7 E.93572
G1 X234.8 Y225 E.06206
G1 X234.8 Y226.24 E.0592
G1 X233.698 Y225 F9000
; FEATURE: Internal solid infill
; LINE_WIDTH: 0.473427
G1 F1280
G1 X233.698 Y224.802 E.01159
G1 X216.302 Y224.802 E1.01992
G1 X216.302 Y225.198 E.02318
M73 P4 R27
G1 X233.698 Y225.198 E1.01992
G1 X233.698 Y225.06 E.00807
; CHANGE_LAYER
; Z_HEIGHT: 1.2948
; LAYER_HEIGHT: 0.330765
G1 E-3.5 F3600
; WIPE_START
G1 F7200
G1 X233.698 Y225.198 E-.09808
