;FLAVOR:Marlin
;TIME:1062
;Filament used: 0.501764m
;Layer height: 0.3
;MINX:129
;MINY:137.5
;MINZ:0.2
;MAXX:171
;MAXY:162.5
;MAXZ:29.9
;TARGET_MACHINE.NAME:Creality CR-10S Pro
;Generated with Cura_SteamEngine 5.7.1
M140 S50
M105
M190 S50
M104 S200
M105
M109 S200
M82 ;absolute extrusion mode
M201 X500.00 Y500.00 Z100.00 E5000.00 ;Setup machine max acceleration
M203 X500.00 Y500.00 Z10.00 E50.00 ;Setup machine max feedrate
M204 P500.00 R1000.00 T500.00 ;Setup Print/Retract/Travel acceleration
M205 X8.00 Y8.00 Z0.40 E5.00 ;Setup Jerk
M220 S100 ;Reset Feedrate
M221 S100 ;Reset Flowrate

G28 ;Home
G29 ;Auto bed Level
M420 S1 ;Save and use mesh

G92 E0 ;Reset Extruder
G1 Z2.0 F3000 ;Move Z Axis up
G1 X10.1 Y20 Z0.28 F5000.0 ;Move to start position
G1 X10.1 Y200.0 Z0.28 F1500.0 E15 ;Draw the first line
G1 X10.4 Y200.0 Z0.28 F5000.0 ;Move to side a little
G1 X10.4 Y20 Z0.28 F1500.0 E30 ;Draw the second line
G92 E0 ;Reset Extruder
G1 Z2.0 F3000 ;Move Z Axis up

G92 E0
G92 E0
G1 F2700 E-5
;LAYER_COUNT:100
;LAYER:0
M107
G0 F6000 X132.456 Y140.513 Z0.2
;TYPE:SKIRT
G1 F2700 E0
G1 F1200 X133.192 Y139.876 E0.03237
G1 X133.924 Y139.346 E0.06243
G1 X134.821 Y138.811 E0.09717
G1 X135.699 Y138.39 E0.12956
G1 X136.612 Y138.048 E0.16198
G1 X137.549 Y137.789 E0.19432
G1 X138.516 Y137.611 E0.22702
G1 X139.655 Y137.515 E0.26504
G1 X140.312 Y137.5 E0.2869
G1 X159.304 Y137.5 E0.91857
G1 X160.184 Y137.513 E0.94784
G1 X161.156 Y137.572 E0.98023
G1 X162.119 Y137.718 E1.01263
G1 X163.066 Y137.949 E1.04505
G1 X163.954 Y138.249 E1.07622
G1 X164.846 Y138.639 E1.1086
G1 X165.729 Y139.126 E1.14214
G1 X166.48 Y139.628 E1.17219
G1 X167.295 Y140.286 E1.20703
G1 X167.993 Y140.964 E1.23939
G1 X168.629 Y141.701 E1.27177
G1 X169.199 Y142.491 E1.30417
G1 X169.661 Y143.267 E1.33421
G1 X170.115 Y144.209 E1.36899
G1 X170.444 Y145.087 E1.40017
G1 X170.713 Y146.059 E1.43372
G1 X170.89 Y147.025 E1.46638
G1 X170.985 Y148.155 E1.5041
G1 X171 Y148.83 E1.52655
G1 X170.999 Y150.9 E1.5954
G1 X170.988 Y151.663 E1.62078
G1 X170.931 Y152.636 E1.6532
G1 X170.786 Y153.599 E1.68559
G1 X170.557 Y154.545 E1.71796
G1 X170.246 Y155.469 E1.75039
G1 X169.854 Y156.36 E1.78277
G1 X169.386 Y157.212 E1.8151
G1 X168.864 Y157.993 E1.84634
G1 X168.231 Y158.778 E1.87988
G1 X167.606 Y159.429 E1.9099
G1 X166.817 Y160.117 E1.94472
G1 X166.057 Y160.667 E1.97592
G1 X165.19 Y161.184 E2.00949
G1 X164.312 Y161.606 E2.04189
G1 X163.401 Y161.948 E2.07426
G1 X162.462 Y162.209 E2.10667
G1 X161.496 Y162.387 E2.13934
G1 X160.345 Y162.485 E2.17776
G1 X159.67 Y162.5 E2.20022
G1 X140.564 Y162.499 E2.83569
G1 X139.831 Y162.488 E2.86007
G1 X138.859 Y162.431 E2.89246
G1 X137.896 Y162.285 E2.92485
G1 X136.95 Y162.056 E2.95722
G1 X136.026 Y161.744 E2.98966
G1 X135.136 Y161.352 E3.02201
G1 X134.313 Y160.901 E3.05322
G1 X133.474 Y160.34 E3.08679
G1 X132.77 Y159.774 E3.11683
G1 X132.017 Y159.049 E3.1516
G1 X131.38 Y158.313 E3.18397
G1 X130.85 Y157.582 E3.21401
G1 X130.314 Y156.685 E3.24876
G1 X129.892 Y155.807 E3.28116
G1 X129.55 Y154.895 E3.31356
G1 X129.29 Y153.957 E3.34593
G1 X129.112 Y152.988 E3.3787
G1 X129.014 Y151.809 E3.41805
G1 X129 Y151.158 E3.43971
G1 X129.001 Y149.025 E3.51065
G1 X129.012 Y148.325 E3.53393
G1 X129.07 Y147.352 E3.56635
G1 X129.216 Y146.389 E3.59875
G1 X129.446 Y145.443 E3.63113
G1 X129.759 Y144.52 E3.66355
G1 X130.151 Y143.63 E3.69589
G1 X130.621 Y142.777 E3.72828
G1 X131.164 Y141.969 E3.76066
G1 X131.731 Y141.265 E3.79073
G1 X132.456 Y140.513 E3.82547
G0 F6000 X132.718 Y140.815
G1 F1200 X133.427 Y140.2 E3.85669
G1 X134.159 Y139.67 E3.88675
G1 X134.995 Y139.171 E3.91913
G1 X135.84 Y138.764 E3.95032
G1 X136.719 Y138.433 E3.98156
G1 X137.622 Y138.182 E4.01274
G1 X138.55 Y138.01 E4.04413
G1 X139.689 Y137.914 E4.08214
G1 X140.321 Y137.9 E4.10317
G1 X159.298 Y137.9 E4.73435
G1 X160.16 Y137.912 E4.76302
G1 X161.097 Y137.968 E4.79424
G1 X162.025 Y138.107 E4.82545
G1 X162.938 Y138.328 E4.85669
G1 X163.794 Y138.616 E4.88673
G1 X164.686 Y139.006 E4.91911
G1 X165.507 Y139.459 E4.9503
G1 X166.258 Y139.961 E4.98034
G1 X167.017 Y140.573 E5.01277
G1 X167.691 Y141.226 E5.04399
G1 X168.305 Y141.935 E5.07518
G1 X168.855 Y142.696 E5.10641
G1 X169.317 Y143.472 E5.13645
G1 X169.74 Y144.349 E5.16883
G1 X170.069 Y145.227 E5.20002
G1 X170.32 Y146.132 E5.23126
G1 X170.491 Y147.059 E5.26261
G1 X170.586 Y148.189 E5.30032
G1 X170.6 Y148.83 E5.32165
G1 X170.599 Y150.895 E5.39033
G1 X170.589 Y151.64 E5.41511
G1 X170.535 Y152.577 E5.44633
G1 X170.397 Y153.506 E5.47757
G1 X170.178 Y154.418 E5.50876
G1 X169.88 Y155.308 E5.53998
G1 X169.503 Y156.168 E5.57121
G1 X169.053 Y156.99 E5.60238
G1 X168.531 Y157.771 E5.63362
G1 X167.942 Y158.501 E5.66482
G1 X167.317 Y159.152 E5.69484
G1 X166.582 Y159.793 E5.72727
G1 X165.822 Y160.343 E5.75848
G1 X165.016 Y160.824 E5.78969
G1 X164.171 Y161.232 E5.8209
G1 X163.293 Y161.563 E5.85211
G1 X162.389 Y161.816 E5.88333
G1 X161.462 Y161.988 E5.91469
G1 X160.311 Y162.086 E5.95311
G1 X159.67 Y162.1 E5.97444
G1 X140.57 Y162.099 E6.60971
G1 X139.854 Y162.089 E6.63352
G1 X138.918 Y162.035 E6.66471
G1 X137.989 Y161.896 E6.69595
G1 X137.077 Y161.677 E6.72715
G1 X136.187 Y161.378 E6.75837
G1 X135.328 Y161.001 E6.78957
G1 X134.505 Y160.55 E6.82079
G1 X133.725 Y160.028 E6.852
G1 X133.021 Y159.462 E6.88205
G1 X132.319 Y158.787 E6.91444
G1 X131.704 Y158.078 E6.94566
G1 X131.174 Y157.347 E6.97569
G1 X130.674 Y156.511 E7.00809
G1 X130.266 Y155.666 E7.0393
G1 X129.935 Y154.788 E7.0705
G1 X129.683 Y153.884 E7.10172
G1 X129.511 Y152.955 E7.13314
G1 X129.413 Y151.776 E7.17249
G1 X129.4 Y151.158 E7.19305
G1 X129.401 Y149.031 E7.26379
G1 X129.411 Y148.348 E7.28651
G1 X129.466 Y147.411 E7.31773
G1 X129.605 Y146.483 E7.34894
G1 X129.825 Y145.571 E7.38014
G1 X130.125 Y144.681 E7.41138
G1 X130.502 Y143.822 E7.44258
G1 X130.953 Y143 E7.47377
G1 X131.476 Y142.22 E7.505
G1 X132.043 Y141.516 E7.53507
G1 X132.718 Y140.815 E7.56744
G0 F6000 X132.981 Y141.117
G1 F1200 X133.662 Y140.524 E7.59747
G1 X134.394 Y139.994 E7.62753
G1 X135.169 Y139.531 E7.65755
G1 X135.982 Y139.138 E7.68759
G1 X136.827 Y138.818 E7.71764
G1 X137.696 Y138.575 E7.74765
G1 X138.584 Y138.409 E7.7777
G1 X139.723 Y138.313 E7.81572
G1 X140.33 Y138.3 E7.83591
G1 X159.293 Y138.3 E8.46662
G1 X160.137 Y138.311 E8.4947
G1 X161.039 Y138.364 E8.52475
G1 X161.932 Y138.496 E8.55477
G1 X162.81 Y138.707 E8.58481
G1 X163.666 Y138.995 E8.61485
G1 X164.493 Y139.357 E8.64487
G1 X165.285 Y139.792 E8.67492
G1 X166.036 Y140.294 E8.70497
G1 X166.739 Y140.861 E8.73501
G1 X167.389 Y141.488 E8.76505
G1 X167.981 Y142.17 E8.79508
G1 X168.511 Y142.901 E8.82512
G1 X168.973 Y143.677 E8.85515
G1 X169.366 Y144.49 E8.88519
G1 X169.684 Y145.335 E8.91522
G1 X169.927 Y146.205 E8.94526
G1 X170.092 Y147.093 E8.9753
G1 X170.187 Y148.223 E9.01302
G1 X170.2 Y148.83 E9.03321
G1 X170.199 Y150.89 E9.10173
G1 X170.19 Y151.617 E9.12591
G1 X170.139 Y152.519 E9.15596
G1 X170.008 Y153.413 E9.18601
G1 X169.799 Y154.291 E9.21603
G1 X169.513 Y155.148 E9.24608
G1 X169.152 Y155.976 E9.27612
G1 X168.72 Y156.768 E9.30613
G1 X168.219 Y157.52 E9.33618
G1 X167.653 Y158.224 E9.36622
G1 X167.028 Y158.875 E9.39624
G1 X166.347 Y159.469 E9.4263
G1 X165.616 Y160 E9.45635
G1 X164.842 Y160.464 E9.48636
G1 X164.029 Y160.858 E9.51641
G1 X163.185 Y161.178 E9.54643
G1 X162.315 Y161.423 E9.57649
G1 X161.428 Y161.589 E9.60651
G1 X160.277 Y161.687 E9.64493
G1 X159.67 Y161.7 E9.66512
G1 X140.575 Y161.699 E10.30022
G1 X139.877 Y161.69 E10.32344
G1 X138.976 Y161.639 E10.35346
G1 X138.082 Y161.507 E10.38351
G1 X137.204 Y161.298 E10.41353
G1 X136.347 Y161.011 E10.44359
G1 X135.52 Y160.65 E10.4736
G1 X134.727 Y160.217 E10.50366
G1 X133.976 Y159.716 E10.53368
G1 X133.272 Y159.15 E10.56373
G1 X132.621 Y158.524 E10.59376
G1 X132.028 Y157.843 E10.6238
G1 X131.498 Y157.112 E10.65383
G1 X131.034 Y156.337 E10.68387
G1 X130.64 Y155.524 E10.71392
G1 X130.32 Y154.68 E10.74394
G1 X130.076 Y153.81 E10.774
G1 X129.91 Y152.922 E10.80404
G1 X129.813 Y151.767 E10.84259
G1 X129.8 Y151.158 E10.86285
G1 X129.801 Y149.036 E10.93343
G1 X129.81 Y148.371 E10.95555
G1 X129.862 Y147.469 E10.9856
G1 X129.994 Y146.576 E11.01563
G1 X130.204 Y145.698 E11.04565
G1 X130.491 Y144.841 E11.07571
G1 X130.853 Y144.014 E11.10574
G1 X131.286 Y143.222 E11.13576
G1 X131.788 Y142.471 E11.1658
G1 X132.355 Y141.767 E11.19587
G1 X132.981 Y141.117 E11.22588
G1 F2700 E6.22588
;MESH:test.stl
G0 F6000 X140.414 Y147.835
G0 X159.4 Y150.9
;TYPE:WALL-INNER
G1 F2700 E11.22588
G1 F1200 X159.4 Y149.1 E11.28575
G1 X140.6 Y149.1 E11.91104
G1 X140.6 Y150.9 E11.97091
G1 X159.4 Y150.9 E12.5962
G0 F6000 X159.8 Y151.3
;TYPE:WALL-OUTER
G1 F1200 X159.8 Y148.7 E12.68268
G1 X140.2 Y148.7 E13.33458
G1 X140.2 Y151.3 E13.42105
G1 X159.8 Y151.3 E14.07295
G0 F6000 X159.53 Y151.03
G0 X159.3 Y150.54
G0 X159.04 Y150.54
;TYPE:SKIN
G1 F1200 X140.96 Y150.54 E14.6743
G1 X140.96 Y149.46 E14.71022
G1 X159.04 Y149.46 E15.31156
G1 X159.04 Y150.54 E15.34748
G0 F6000 X158.711 Y149.66
G1 F1200 X158.84 Y149.789 E15.35355
G0 F6000 X158.825 Y150.34
G1 F1200 X158.145 Y149.66 E15.38553
G0 F6000 X157.579 Y149.66
G1 F1200 X158.26 Y150.34 E15.41754
G0 F6000 X157.694 Y150.34
G1 F1200 X157.014 Y149.66 E15.44953
G0 F6000 X156.448 Y149.66
G1 F1200 X157.128 Y150.34 E15.48151
G0 F6000 X156.563 Y150.34
G1 F1200 X155.882 Y149.66 E15.51352
G0 F6000 X155.317 Y149.66
G1 F1200 X155.997 Y150.34 E15.54551
G0 F6000 X155.431 Y150.34
G1 F1200 X154.751 Y149.66 E15.57749
G0 F6000 X154.185 Y149.66
G1 F1200 X154.866 Y150.34 E15.6095
G0 F6000 X154.3 Y150.34
G1 F1200 X153.62 Y149.66 E15.64148
G0 F6000 X153.054 Y149.66
G1 F1200 X153.734 Y150.34 E15.67347
G0 F6000 X153.169 Y150.34
G1 F1200 X152.488 Y149.66 E15.70548
G0 F6000 X151.923 Y149.66
G1 F1200 X152.603 Y150.34 E15.73746
G0 F6000 X152.037 Y150.34
G1 F1200 X151.357 Y149.66 E15.76945
G0 F6000 X150.791 Y149.66
G1 F1200 X151.471 Y150.34 E15.80143
G0 F6000 X150.906 Y150.34
G1 F1200 X150.226 Y149.66 E15.83342
G0 F6000 X149.66 Y149.66
G1 F1200 X150.34 Y150.34 E15.8654
G0 F6000 X149.774 Y150.34
G1 F1200 X149.094 Y149.66 E15.89739
G0 F6000 X148.528 Y149.66
G1 F1200 X149.209 Y150.34 E15.9294
G0 F6000 X148.643 Y150.34
G1 F1200 X147.963 Y149.66 E15.96138
G0 F6000 X147.397 Y149.66
G1 F1200 X148.077 Y150.34 E15.99337
G0 F6000 X147.512 Y150.34
G1 F1200 X146.831 Y149.66 E16.02538
G0 F6000 X146.266 Y149.66
G1 F1200 X146.946 Y150.34 E16.05736
G0 F6000 X146.38 Y150.34
G1 F1200 X145.7 Y149.66 E16.08935
G0 F6000 X145.134 Y149.66
G1 F1200 X145.815 Y150.34 E16.12136
G0 F6000 X145.249 Y150.34
G1 F1200 X144.569 Y149.66 E16.15334
G0 F6000 X144.003 Y149.66
G1 F1200 X144.683 Y150.34 E16.18533
G0 F6000 X144.118 Y150.34
G1 F1200 X143.437 Y149.66 E16.21733
G0 F6000 X142.872 Y149.66
G1 F1200 X143.552 Y150.34 E16.24932
G0 F6000 X142.986 Y150.34
G1 F1200 X142.306 Y149.66 E16.2813
G0 F6000 X141.74 Y149.66
G1 F1200 X142.42 Y150.34 E16.31329
G0 F6000 X141.855 Y150.34
G1 F1200 X141.175 Y149.66 E16.34527
G0 F6000 X141.16 Y150.211
G1 F1200 X141.289 Y150.34 E16.35134
G1 F2700 E11.35134
;MESH:NONMESH
G0 F300 X141.289 Y150.34 Z0.5
G0 F6000 X141.289 Y150.8
G0 X140.772 Y150.728
G0 X140.414 Y148.914
G0 X140.414 Y147.835
G0 X132.981 Y141.117
;TIME_ELAPSED:33.535573
;LAYER:1
M106 S85
;TYPE:SKIRT
G1 F2700 E16.35134
G1 F1200 X133.662 Y140.524 E16.39639
G1 X134.394 Y139.994 E16.44148
G1 X135.169 Y139.531 E16.48652
G1 X135.982 Y139.138 E16.53157
G1 X136.827 Y138.818 E16.57665
G1 X137.696 Y138.575 E16.62167
G1 X138.584 Y138.409 E16.66674
G1 X139.723 Y138.313 E16.72376
G1 X140.33 Y138.3 E16.75405
G1 X159.293 Y138.3 E17.70012
G1 X160.137 Y138.311 E17.74223
G1 X161.039 Y138.364 E17.78731
G1 X161.932 Y138.496 E17.83235
G1 X162.81 Y138.707 E17.8774
G1 X163.666 Y138.995 E17.92246
G1 X164.493 Y139.357 E17.9675
G1 X165.285 Y139.792 E18.01258
G1 X166.036 Y140.294 E18.05764
G1 X166.739 Y140.861 E18.1027
G1 X167.389 Y141.488 E18.14776
G1 X167.981 Y142.17 E18.19282
G1 X168.511 Y142.901 E18.23786
G1 X168.973 Y143.677 E18.28292
G1 X169.366 Y144.49 E18.32797
G1 X169.684 Y145.335 E18.37301
G1 X169.927 Y146.205 E18.41808
G1 X170.092 Y147.093 E18.46314
G1 X170.187 Y148.223 E18.51971
G1 X170.2 Y148.83 E18.55001
G1 X170.199 Y150.89 E18.65278
G1 X170.19 Y151.617 E18.68905
G1 X170.139 Y152.519 E18.73412
G1 X170.008 Y153.413 E18.7792
G1 X169.799 Y154.291 E18.82423
G1 X169.513 Y155.148 E18.8693
G1 X169.152 Y155.976 E18.91437
G1 X168.72 Y156.768 E18.95938
G1 X168.219 Y157.52 E19.00446
G1 X167.653 Y158.224 E19.04953
G1 X167.028 Y158.875 E19.09455
G1 X166.347 Y159.469 E19.13963
G1 X165.616 Y160 E19.18471
G1 X164.842 Y160.464 E19.22973
G1 X164.029 Y160.858 E19.2748
G1 X163.185 Y161.178 E19.31984
G1 X162.315 Y161.423 E19.36493
G1 X161.428 Y161.589 E19.40995
G1 X160.277 Y161.687 E19.46758
G1 X159.67 Y161.7 E19.49787
G1 X140.575 Y161.699 E20.45052
G1 X139.877 Y161.69 E20.48535
G1 X138.976 Y161.639 E20.53037
G1 X138.082 Y161.507 E20.57546
G1 X137.204 Y161.298 E20.62049
G1 X136.347 Y161.011 E20.66558
G1 X135.52 Y160.65 E20.7106
G1 X134.727 Y160.217 E20.75567
G1 X133.976 Y159.716 E20.80071
G1 X133.272 Y159.15 E20.84578
G1 X132.621 Y158.524 E20.89084
G1 X132.028 Y157.843 E20.93589
G1 X131.498 Y157.112 E20.98093
G1 X131.034 Y156.337 E21.026
G1 X130.64 Y155.524 E21.07107
G1 X130.32 Y154.68 E21.1161
G1 X130.076 Y153.81 E21.16118
G1 X129.91 Y152.922 E21.20625
G1 X129.813 Y151.767 E21.26408
G1 X129.8 Y151.158 E21.29447
G1 X129.801 Y149.036 E21.40034
G1 X129.81 Y148.371 E21.43352
G1 X129.862 Y147.469 E21.47859
G1 X129.994 Y146.576 E21.52363
G1 X130.204 Y145.698 E21.56867
G1 X130.491 Y144.841 E21.61376
G1 X130.853 Y144.014 E21.6588
G1 X131.286 Y143.222 E21.70383
G1 X131.788 Y142.471 E21.7489
G1 X132.355 Y141.767 E21.79399
G1 X132.981 Y141.117 E21.83902
G1 F2700 E16.83902
;MESH:test.stl
G0 F7500 X140.414 Y147.835
G0 X159.4 Y150.9
;TYPE:WALL-INNER
G1 F2700 E21.83902
G1 F1350 X159.4 Y149.1 E21.92882
G1 X140.6 Y149.1 E22.86675
G1 X140.6 Y150.9 E22.95656
G1 X159.4 Y150.9 E23.89449
G0 F7500 X159.8 Y151.3
;TYPE:WALL-OUTER
G1 F1350 X159.8 Y148.7 E24.02421
G1 X140.2 Y148.7 E25.00205
G1 X140.2 Y151.3 E25.13177
G1 X159.8 Y151.3 E26.10962
G0 F7500 X159.53 Y151.03
G0 X140.772 Y150.728
G0 X140.7 Y150
G0 X141.5 Y150
;TYPE:SKIN
G1 F794.1 X158.5 Y150 E27.55144
G0 F7500 X159.04 Y150.54
G1 F1350 X140.96 Y150.54 E28.45346
G1 X140.96 Y149.46 E28.50734
G1 X159.04 Y149.46 E29.40936
G1 X159.04 Y150.54 E29.46324
G1 F2700 E24.46324
;MESH:NONMESH
G0 F300 X159.04 Y150.54 Z0.8
G0 F7500 X159.3 Y150.54
G0 X159.228 Y149.272
G0 X140.414 Y148.914
G0 X140.414 Y147.835
G0 X132.981 Y141.117
;TIME_ELAPSED:48.944497
;LAYER:2
M106 S170
;TYPE:SKIRT
G1 F2700 E29.46324
G1 F1200 X133.662 Y140.524 E29.50829
G1 X134.394 Y139.994 E29.55337
G1 X135.169 Y139.531 E29.59841
G1 X135.982 Y139.138 E29.64347
G1 X136.827 Y138.818 E29.68854
G1 X137.696 Y138.575 E29.73356
G1 X138.584 Y138.409 E29.77863
G1 X139.723 Y138.313 E29.83566
G1 X140.33 Y138.3 E29.86595
G1 X159.293 Y138.3 E30.81202
G1 X160.137 Y138.311 E30.85413
G1 X161.039 Y138.364 E30.89921
G1 X161.932 Y138.496 E30.94424
G1 X162.81 Y138.707 E30.98929
G1 X163.666 Y138.995 E31.03435
G1 X164.493 Y139.357 E31.07939
G1 X165.285 Y139.792 E31.12447
G1 X166.036 Y140.294 E31.16954
G1 X166.739 Y140.861 E31.2146
G1 X167.389 Y141.488 E31.25965
G1 X167.981 Y142.17 E31.30471
G1 X168.511 Y142.901 E31.34976
G1 X168.973 Y143.677 E31.39481
G1 X169.366 Y144.49 E31.43986
G1 X169.684 Y145.335 E31.48491
G1 X169.927 Y146.205 E31.52997
G1 X170.092 Y147.093 E31.57503
G1 X170.187 Y148.223 E31.63161
G1 X170.2 Y148.83 E31.6619
G1 X170.199 Y150.89 E31.76467
G1 X170.19 Y151.617 E31.80095
G1 X170.139 Y152.519 E31.84602
G1 X170.008 Y153.413 E31.8911
G1 X169.799 Y154.291 E31.93612
G1 X169.513 Y155.148 E31.9812
G1 X169.152 Y155.976 E32.02626
G1 X168.72 Y156.768 E32.07127
G1 X168.219 Y157.52 E32.11635
G1 X167.653 Y158.224 E32.16142
G1 X167.028 Y158.875 E32.20644
G1 X166.347 Y159.469 E32.25153
G1 X165.616 Y160 E32.2966
G1 X164.842 Y160.464 E32.34162
G1 X164.029 Y160.858 E32.3867
G1 X163.185 Y161.178 E32.43173
G1 X162.315 Y161.423 E32.47682
G1 X161.428 Y161.589 E32.52184
G1 X160.277 Y161.687 E32.57948
G1 X159.67 Y161.7 E32.60977
G1 X140.575 Y161.699 E33.56242
G1 X139.877 Y161.69 E33.59724
