; generated by PrusaSlicer 2.8.0+win64 on 2024-08-13 at 23:54:18 UTC


;
;

;
;

;
;

;
;

;
;
; 

; external perimeters extrusion width = 0.40mm
; perimeters extrusion width = 0.40mm
; infill extrusion width = 0.40mm
; solid infill extrusion width = 0.40mm
; top infill extrusion width = 0.40mm
; first layer extrusion width = 0.45mm

M73 P0 R86
M73 Q0 S86
M201 X2500 Y2500 Z200 E2500 ; sets maximum accelerations, mm/sec^2
M203 X200 Y200 Z40 E100 ; sets maximum feedrates, mm / sec
M204 P2000 R1200 T2000 ; sets acceleration (P, T) and retract acceleration (R), mm/sec^2
M205 X8.00 Y8.00 Z2.00 E10.00 ; sets the jerk limits, mm/sec
M205 S0 T0 ; sets the minimum extruding and travel feed rate, mm/sec

M486 S0
M486 Atest.stl
M486 S-1

;TYPE:Custom
M17 ; enable steppers
M862.3 P "MK4" ; printer model check
M862.1 P0.4 ; nozzle diameter check
M115 U6.0.3+14902
M555 X115 Y99.5 W32 H7

G90 ; use absolute coordinates
M83 ; extruder relative mode

M140 S60 ; set bed temp
M104 T0 S170 ; set extruder temp for bed leveling
M109 T0 R170 ; wait for temp

M84 E ; turn off E motor

G28 ; home all without mesh bed level

G1 X42 Y-4 Z5 F4800

M302 S160 ; lower cold extrusion limit to 160C


G1 E-2 F2400 ; retraction


M84 E ; turn off E motor

G29 P9 X10 Y-4 W32 H4

M106 S100

G0 Z40 F10000

M190 S60 ; wait for bed temp

M107

;
; MBL
;
M84 E ; turn off E motor
G29 P1 ; invalidate mbl & probe print area
G29 P1 X0 Y0 W50 H20 C ; probe near purge place
G29 P3.2 ; interpolate mbl probes
G29 P3.13 ; extrapolate mbl outside probe area
G29 A ; activate mbl

; prepare for purge
M104 S215
G0 X0 Y-4 Z15 F4800 ; move away and ready for the purge
M109 S215

G92 E0
M569 S0 E ; set spreadcycle mode for extruder

;
; Extrude purge line
;
G92 E0 ; reset extruder position
G1 E2 F2400 ; deretraction after the initial one before nozzle cleaning
G0 E7 X15 Z0.2 F500 ; purge
G0 X25 E4 F500 ; purge
M73 P0 R85
M73 Q0 S85
G0 X35 E4 F650 ; purge
G0 X45 E4 F800 ; purge
G0 X48 Z0.05 F8000 ; wipe, move close to the bed
G0 X51 Z0.2 F8000 ; wipe, move quickly away from the bed

G92 E0
M221 S100 ; set flow to 100%
G21 ; set units to millimeters
G90 ; use absolute coordinates
M83 ; use relative distances for extrusion
M900 K0.05 ; Filament gcode



M142 S36 ; set heatbreak target temp
M107
;LAYER_CHANGE
;Z:0.2
;HEIGHT:0.2
G1 E-.8 F2100
G1 Z.8 F720
M486 S0
G1 X116.268 Y105.232 F12000
G1 Z.2 F720
G1 E.8 F1500
M204 P600
;TYPE:Perimeter
;WIDTH:0.507302
G1 F1020
G1 X116.268 Y104.768 E.01792
G1 X133.732 Y104.768 E.67435
G1 X133.732 Y105 E.00896
G1 X133.732 Y105.232 E.00896
G1 X116.328 Y105.232 E.67203
M204 P800
G1 X116.328 Y105.232 F12000
G1 X115.832 Y105.668
M204 P600
;WIDTH:0.449999
G1 F1020
G1 X115.832 Y104.332 E.04522
G1 X134.168 Y104.332 E.62065
G1 X134.168 Y105 E.02261
G1 X134.168 Y105.668 E.02261
G1 X115.892 Y105.668 E.61862
M204 P800
G1 X115.425 Y106.075 F12000
M204 P600
;TYPE:External perimeter
G1 F1020
G1 X115.425 Y103.925 E.07277
G1 X134.575 Y103.925 E.6482
G1 X134.575 Y105 E.03639
G1 X134.575 Y106.075 E.03639
G1 X115.485 Y106.075 E.64617
M204 P800
M106 S127.5
;LAYER_CHANGE
;Z:0.25
;HEIGHT:0.05
;BEFORE_LAYER_CHANGE
G92 E0.0
;0.25


G1 X115.485 Y106.075 Z.2 F12000
G1 X115.979 Y105.521 Z.25 F10758.651
;AFTER_LAYER_CHANGE
;0.25
G1 X115.979 Y105.521 F12000
G1 Z.25 F720

M204 P300
;TYPE:Perimeter
;WIDTH:0.399999
G1 F1200
G1 X115.979 Y104.479 E.00843
G1 X134.021 Y104.479 E.146
G1 X134.021 Y105 E.00422
G1 X134.021 Y105.521 E.00422
G1 X116.039 Y105.521 E.14551
M204 P800
G1 X116.039 Y105.521 F12000
G1 X115.589 Y105.911
M204 P300
G1 F1275
G1 X115.589 Y104.089 E.01474
G1 X134.411 Y104.089 E.15231
G1 X134.411 Y105 E.00737
G1 X134.411 Y105.911 E.00737
G1 X115.649 Y105.911 E.15182
M204 P800
G1 X115.649 Y105.911 F12000
G1 X115.2 Y106.3
M204 P300
;TYPE:External perimeter
G1 F1171.553
G1 X115.2 Y103.7 E.02104
G1 F1200
G1 X115.8 Y103.7 E.00486
G1 X134.2 Y103.7 E.14889
G1 X134.8 Y103.7 E.00486
G1 F1178.024
G1 X134.8 Y105 E.01052
G1 F1171.99
G1 X134.8 Y106.3 E.01052
G1 F1186.94
G1 X115.26 Y106.3 E.15812
M204 P800
G1 E-.64 F2100
;WIPE_START
G1 F9600
G1 X115.2 Y106.3 E-.01247
G1 X115.2 Y105.59 E-.14753
;WIPE_END
G1 X133.683 Y104.817 Z.573 F12000
G1 Z.25 F720
G1 E.8 F1500
M204 P700
;TYPE:Solid infill
;WIDTH:0.376483
G1 F1275
G1 X133.683 Y105.183 E.00278
G1 X116.317 Y105.183 E.13204
G1 X116.317 Y104.817 E.00278
G1 X133.488 Y104.817 E.13055
M204 P800
M106 S255
;LAYER_CHANGE
;Z:0.3
;HEIGHT:0.05
;BEFORE_LAYER_CHANGE
G92 E0.0
;0.3


G1 E-.64 F2100
;WIPE_START
G1 F9600
G1 X132.718 Y104.817 E-.16
;WIPE_END
G1 X132.718 Y104.817 Z.25 F12000
G1 X115.979 Y105.521 Z.542
;AFTER_LAYER_CHANGE
;0.3
G1 X115.979 Y105.521
G1 Z.3 F720
G1 E.8 F1500
M204 P300
;TYPE:Perimeter
;WIDTH:0.399999
G1 F1200
G1 X115.979 Y104.479 E.00843
G1 X134.021 Y104.479 E.146
G1 X134.021 Y105 E.00422
G1 X134.021 Y105.521 E.00422
G1 X116.039 Y105.521 E.14551
M204 P800
G1 X116.039 Y105.521 F12000
G1 X115.589 Y105.911
M204 P300
G1 F1301
G1 X115.589 Y104.089 E.01474
G1 X134.411 Y104.089 E.15231
G1 X134.411 Y105 E.00737
G1 X134.411 Y105.911 E.00737
G1 X115.649 Y105.911 E.15182
M204 P800
G1 X115.649 Y105.911 F12000
G1 X115.2 Y106.3
M204 P300
;TYPE:External perimeter
G1 F1200
G1 X115.2 Y103.7 E.02104
G1 X115.8 Y103.7 E.00486
G1 X134.2 Y103.7 E.14889
G1 X134.8 Y103.7 E.00486
G1 X134.8 Y105 E.01052
G1 X134.8 Y106.3 E.01052
G1 X115.26 Y106.3 E.15812
M204 P800
G1 E-.64 F2100
;WIPE_START
G1 F9600
G1 X115.2 Y106.3 E-.01247
G1 X115.2 Y105.59 E-.14753
;WIPE_END
G1 X116.317 Y105.183 Z.321 F12000
G1 Z.3 F720
G1 E.8 F1500
M204 P700
;TYPE:Solid infill
;WIDTH:0.376483
G1 F1301
G1 X116.317 Y104.817 E.00278
G1 X133.683 Y104.817 E.13204
G1 X133.683 Y105.183 E.00278
G1 X116.512 Y105.183 E.13055
M204 P800
;LAYER_CHANGE
;Z:0.35
;HEIGHT:0.05
;BEFORE_LAYER_CHANGE
G92 E0.0
;0.35


G1 X116.512 Y105.183 Z.3 F12000
G1 X115.979 Y105.521 Z.35 F9269.807
G1 X115.979 Y105.521 Z.35 F12000
;AFTER_LAYER_CHANGE
;0.35
G1 Z.35 F720

M204 P300
;TYPE:Perimeter
;WIDTH:0.399999
G1 F1200
G1 X115.979 Y104.479 E.00843
G1 X134.021 Y104.479 E.146
G1 X134.021 Y105 E.00422
G1 X134.021 Y105.521 E.00422
G1 X116.039 Y105.521 E.14551
M204 P800
G1 X116.039 Y105.521 F12000
G1 X115.589 Y105.911
M204 P300
G1 F1269
G1 X115.589 Y104.089 E.01474
G1 X134.411 Y104.089 E.15231
G1 X134.411 Y105 E.00737
G1 X134.411 Y105.911 E.00737
G1 X115.649 Y105.911 E.15182
M204 P800
G1 X115.649 Y105.911 F12000
G1 X115.2 Y106.3
M204 P300
;TYPE:External perimeter
G1 F1200
G1 X115.2 Y103.7 E.02104
G1 X115.8 Y103.7 E.00486
G1 X134.2 Y103.7 E.14889
G1 X134.8 Y103.7 E.00486
G1 X134.8 Y105 E.01052
G1 X134.8 Y106.3 E.01052
G1 X115.26 Y106.3 E.15812
M204 P800
G1 E-.64 F2100
;WIPE_START
G1 F9600
G1 X115.2 Y106.3 E-.01247
G1 X115.2 Y105.59 E-.14753
;WIPE_END
G1 X133.683 Y104.817 Z.673 F12000
G1 Z.35 F720
G1 E.8 F1500
M204 P700
;TYPE:Solid infill
;WIDTH:0.376483
G1 F1269
G1 X133.683 Y105.183 E.00278
G1 X116.317 Y105.183 E.13204
G1 X116.317 Y104.817 E.00278
G1 X133.488 Y104.817 E.13055
M204 P800
;LAYER_CHANGE
;Z:0.4
;HEIGHT:0.05
;BEFORE_LAYER_CHANGE
G92 E0.0
;0.4


G1 E-.64 F2100
;WIPE_START
G1 F9600
G1 X132.718 Y104.817 E-.16
;WIPE_END
G1 X132.718 Y104.817 Z.35 F12000
G1 X115.979 Y105.521 Z.642
;AFTER_LAYER_CHANGE
;0.4
G1 X115.979 Y105.521
G1 Z.4 F720
G1 E.8 F1500
M204 P300
;TYPE:Perimeter
;WIDTH:0.399999
G1 F1200
G1 X115.979 Y104.479 E.00843
G1 X134.021 Y104.479 E.146
G1 X134.021 Y105 E.00422
G1 X134.021 Y105.521 E.00422
G1 X116.039 Y105.521 E.14551
M204 P800
G1 X116.039 Y105.521 F12000
G1 X115.589 Y105.911
M204 P300
G1 F1301
G1 X115.589 Y104.089 E.01474
G1 X134.411 Y104.089 E.15231
G1 X134.411 Y105 E.00737
G1 X134.411 Y105.911 E.00737
G1 X115.649 Y105.911 E.15182
M204 P800
G1 X115.649 Y105.911 F12000
G1 X115.2 Y106.3
M204 P300
;TYPE:External perimeter
G1 F1200
G1 X115.2 Y103.7 E.02104
G1 X115.8 Y103.7 E.00486
G1 X134.2 Y103.7 E.14889
G1 X134.8 Y103.7 E.00486
G1 X134.8 Y105 E.01052
G1 X134.8 Y106.3 E.01052
G1 X115.26 Y106.3 E.15812
M204 P800
G1 E-.64 F2100
;WIPE_START
G1 F9600
G1 X115.2 Y106.3 E-.01247
G1 X115.2 Y105.59 E-.14753
;WIPE_END
G1 X116.317 Y105.183 Z.421 F12000
G1 Z.4 F720
G1 E.8 F1500
M204 P700
;TYPE:Solid infill
;WIDTH:0.376483
G1 F1301
G1 X116.317 Y104.817 E.00278
G1 X133.683 Y104.817 E.13204
G1 X133.683 Y105.183 E.00278
G1 X116.512 Y105.183 E.13055
M204 P800
;LAYER_CHANGE
;Z:0.45
;HEIGHT:0.05
;BEFORE_LAYER_CHANGE
G92 E0.0
;0.45


G1 X116.512 Y105.183 Z.4 F12000
G1 X115.979 Y105.521 Z.45 F9269.807
G1 X115.979 Y105.521 Z.45 F12000
;AFTER_LAYER_CHANGE
;0.45
G1 Z.45 F720

M204 P300
;TYPE:Perimeter
;WIDTH:0.399999
G1 F1200
G1 X115.979 Y104.479 E.00843
G1 X134.021 Y104.479 E.146
G1 X134.021 Y105 E.00422
M73 P1 R85
M73 Q1 S85
G1 X134.021 Y105.521 E.00422
G1 X116.039 Y105.521 E.14551
M204 P800
G1 X116.039 Y105.521 F12000
G1 X115.589 Y105.911
M204 P300
G1 F1269
G1 X115.589 Y104.089 E.01474
G1 X134.411 Y104.089 E.15231
G1 X134.411 Y105 E.00737
G1 X134.411 Y105.911 E.00737
G1 X115.649 Y105.911 E.15182
M204 P800
G1 X115.649 Y105.911 F12000
G1 X115.2 Y106.3
M204 P300
;TYPE:External perimeter
G1 F1200
G1 X115.2 Y103.7 E.02104
G1 X115.8 Y103.7 E.00486
G1 X134.2 Y103.7 E.14889
G1 X134.8 Y103.7 E.00486
G1 X134.8 Y105 E.01052
G1 X134.8 Y106.3 E.01052
G1 X115.26 Y106.3 E.15812
M204 P800
G1 E-.64 F2100
;WIPE_START
G1 F9600
G1 X115.2 Y106.3 E-.01247
G1 X115.2 Y105.59 E-.14753
;WIPE_END
G1 X133.683 Y104.817 Z.773 F12000
G1 Z.45 F720
G1 E.8 F1500
M204 P700
;TYPE:Solid infill
;WIDTH:0.376483
G1 F1269
G1 X133.683 Y105.183 E.00278
G1 X116.317 Y105.183 E.13204
G1 X116.317 Y104.817 E.00278
G1 X133.488 Y104.817 E.13055
M204 P800
;LAYER_CHANGE
;Z:0.5
;HEIGHT:0.05
;BEFORE_LAYER_CHANGE
G92 E0.0
;0.5


G1 E-.64 F2100
;WIPE_START
G1 F9600
G1 X132.718 Y104.817 E-.16
;WIPE_END
G1 X132.718 Y104.817 Z.45 F12000
G1 X115.979 Y105.521 Z.742
;AFTER_LAYER_CHANGE
;0.5
G1 X115.979 Y105.521
G1 Z.5 F720
G1 E.8 F1500
M204 P300
;TYPE:Perimeter
;WIDTH:0.399999
G1 F1200
G1 X115.979 Y104.479 E.00843
G1 X134.021 Y104.479 E.146
G1 X134.021 Y105 E.00422
G1 X134.021 Y105.521 E.00422
G1 X116.039 Y105.521 E.14551
M204 P800
G1 X116.039 Y105.521 F12000
G1 X115.589 Y105.911
M204 P300
G1 F1291
G1 X115.589 Y104.089 E.01474
G1 X134.411 Y104.089 E.15231
G1 X134.411 Y105 E.00737
G1 X134.411 Y105.911 E.00737
G1 X115.649 Y105.911 E.15182
M204 P800
G1 X115.649 Y105.911 F12000
G1 X115.2 Y106.3
M204 P300
;TYPE:External perimeter
G1 F1200
G1 X115.2 Y103.7 E.02104
G1 X134.8 Y103.7 E.1586
G1 X134.8 Y105 E.01052
M73 P1 R84
M73 Q1 S84
G1 X134.8 Y106.3 E.01052
G1 X115.26 Y106.3 E.15812
M204 P800
G1 E-.64 F2100
;WIPE_START
G1 F9600
G1 X115.2 Y106.3 E-.01247
G1 X115.2 Y105.59 E-.14753
;WIPE_END
G1 X116.317 Y105.183 Z.521 F12000
G1 Z.5 F720
G1 E.8 F1500
M204 P700
;TYPE:Solid infill
;WIDTH:0.376483
G1 F1291
G1 X116.317 Y104.817 E.00278
G1 X133.683 Y104.817 E.13204
G1 X133.683 Y105.183 E.00278
G1 X116.512 Y105.183 E.13055
M204 P800
;LAYER_CHANGE
;Z:0.55
;HEIGHT:0.05
;BEFORE_LAYER_CHANGE
G92 E0.0
;0.55


G1 X116.512 Y105.183 Z.5 F12000
G1 X115.979 Y105.521 Z.55 F9269.807
G1 X115.979 Y105.521 Z.55 F12000
;AFTER_LAYER_CHANGE
;0.55
G1 Z.55 F720

M204 P300
;TYPE:Perimeter
;WIDTH:0.399999
G1 F1200
G1 X115.979 Y104.479 E.00843
G1 X134.021 Y104.479 E.146
G1 X134.021 Y105 E.00422
G1 X134.021 Y105.521 E.00422
G1 X116.039 Y105.521 E.14551
M204 P800
G1 X116.039 Y105.521 F12000
G1 X115.589 Y105.911
M204 P300
G1 F1260
G1 X115.589 Y104.089 E.01474
G1 X134.411 Y104.089 E.15231
G1 X134.411 Y105 E.00737
G1 X134.411 Y105.911 E.00737
G1 X115.649 Y105.911 E.15182
M204 P800
G1 X115.649 Y105.911 F12000
G1 X115.2 Y106.3
M204 P300
;TYPE:External perimeter
G1 F1200
G1 X115.2 Y103.7 E.02104
G1 X134.8 Y103.7 E.1586
G1 X134.8 Y105 E.01052
G1 X134.8 Y106.3 E.01052
G1 X115.26 Y106.3 E.15812
M204 P800
G1 E-.64 F2100
;WIPE_START
G1 F9600
G1 X115.2 Y106.3 E-.01247
G1 X115.2 Y105.59 E-.14753
;WIPE_END
G1 X133.683 Y104.817 Z.873 F12000
G1 Z.55 F720
G1 E.8 F1500
M204 P700
;TYPE:Solid infill
;WIDTH:0.376483
G1 F1260
G1 X133.683 Y105.183 E.00278
G1 X116.317 Y105.183 E.13204
G1 X116.317 Y104.817 E.00278
G1 X133.488 Y104.817 E.13055
M204 P800
;LAYER_CHANGE
;Z:0.6
;HEIGHT:0.05
;BEFORE_LAYER_CHANGE
G92 E0.0
;0.6


G1 E-.64 F2100
;WIPE_START
G1 F9600
G1 X132.718 Y104.817 E-.16
;WIPE_END
G1 X132.718 Y104.817 Z.55 F12000
G1 X115.979 Y105.521 Z.842
;AFTER_LAYER_CHANGE
;0.6
G1 X115.979 Y105.521
G1 Z.6 F720
G1 E.8 F1500
M204 P300
;TYPE:Perimeter
;WIDTH:0.399999
G1 F1200
G1 X115.979 Y104.479 E.00843
G1 X134.021 Y104.479 E.146
G1 X134.021 Y105 E.00422
G1 X134.021 Y105.521 E.00422
G1 X116.039 Y105.521 E.14551
M204 P800
G1 X116.039 Y105.521 F12000
G1 X115.589 Y105.911
M204 P300
G1 F1291
G1 X115.589 Y104.089 E.01474
G1 X134.411 Y104.089 E.15231
G1 X134.411 Y105 E.00737
G1 X134.411 Y105.911 E.00737
G1 X115.649 Y105.911 E.15182
M204 P800
G1 X115.649 Y105.911 F12000
G1 X115.2 Y106.3
M204 P300
;TYPE:External perimeter
G1 F1200
G1 X115.2 Y103.7 E.02104
G1 X134.8 Y103.7 E.1586
G1 X134.8 Y105 E.01052
G1 X134.8 Y106.3 E.01052
G1 X115.26 Y106.3 E.15812
M204 P800
G1 E-.64 F2100
;WIPE_START
G1 F9600
G1 X115.2 Y106.3 E-.01247
G1 X115.2 Y105.59 E-.14753
;WIPE_END
G1 X116.317 Y105.183 Z.621 F12000
G1 Z.6 F720
G1 E.8 F1500
M204 P700
;TYPE:Solid infill
;WIDTH:0.376483
G1 F1291
G1 X116.317 Y104.817 E.00278
G1 X133.683 Y104.817 E.13204
G1 X133.683 Y105.183 E.00278
G1 X116.512 Y105.183 E.13055
M204 P800
;LAYER_CHANGE
;Z:0.65
;HEIGHT:0.05
;BEFORE_LAYER_CHANGE
G92 E0.0
;0.65


G1 X116.512 Y105.183 Z.6 F12000
G1 X115.979 Y105.521 Z.65 F9269.807
G1 X115.979 Y105.521 Z.65 F12000
;AFTER_LAYER_CHANGE
;0.65
G1 Z.65 F720

M204 P300
;TYPE:Perimeter
;WIDTH:0.399999
G1 F1200
G1 X115.979 Y104.479 E.00843
G1 X134.021 Y104.479 E.146
G1 X134.021 Y105 E.00422
G1 X134.021 Y105.521 E.00422
G1 X116.039 Y105.521 E.14551
M204 P800
G1 X116.039 Y105.521 F12000
G1 X115.589 Y105.911
M204 P300
G1 F1260
G1 X115.589 Y104.089 E.01474
G1 X134.411 Y104.089 E.15231
G1 X134.411 Y105 E.00737
G1 X134.411 Y105.911 E.00737
G1 X115.649 Y105.911 E.15182
M204 P800
G1 X115.649 Y105.911 F12000
G1 X115.2 Y106.3
M204 P300
;TYPE:External perimeter
G1 F1200
G1 X115.2 Y103.7 E.02104
G1 X134.8 Y103.7 E.1586
G1 X134.8 Y105 E.01052
G1 X134.8 Y106.3 E.01052
G1 X115.26 Y106.3 E.15812
M204 P800
G1 E-.64 F2100
;WIPE_START
G1 F9600
G1 X115.2 Y106.3 E-.01247
G1 X115.2 Y105.59 E-.14753
;WIPE_END
G1 X133.683 Y104.817 Z.973 F12000
G1 Z.65 F720
G1 E.8 F1500
M204 P700
;TYPE:Solid infill
;WIDTH:0.376483
G1 F1260
G1 X133.683 Y105.183 E.00278
G1 X116.317 Y105.183 E.13204
G1 X116.317 Y104.817 E.00278
G1 X133.488 Y104.817 E.13055
M204 P800
;LAYER_CHANGE
;Z:0.7
;HEIGHT:0.05
;BEFORE_LAYER_CHANGE
G92 E0.0
;0.7


G1 E-.64 F2100
;WIPE_START
G1 F9600
G1 X132.718 Y104.817 E-.16
;WIPE_END
G1 X132.718 Y104.817 Z.65 F12000
G1 X115.979 Y105.521 Z.942
;AFTER_LAYER_CHANGE
;0.7
G1 X115.979 Y105.521
G1 Z.7 F720
G1 E.8 F1500
M204 P300
;TYPE:Perimeter
;WIDTH:0.399999
G1 F1140
G1 X115.979 Y104.479 E.00843
G1 X134.021 Y104.479 E.146
G1 X134.021 Y105 E.00422
G1 X134.021 Y105.521 E.00422
G1 X116.039 Y105.521 E.14551
M204 P800
G1 X116.039 Y105.521 F12000
G1 X115.589 Y105.911
M204 P300
G1 F1140
G1 X115.589 Y104.089 E.01474
G1 X134.411 Y104.089 E.15231
G1 X134.411 Y105 E.00737
G1 X134.411 Y105.911 E.00737
G1 X115.649 Y105.911 E.15182
M204 P800
G1 X115.649 Y105.911 F12000
G1 X115.2 Y106.3
M204 P300
;TYPE:External perimeter
G1 F1140
G1 X115.2 Y103.7 E.02104
G1 X134.8 Y103.7 E.1586
G1 X134.8 Y105 E.01052
G1 X134.8 Y106.3 E.01052
G1 X115.26 Y106.3 E.15812
M204 P800
G1 E-.64 F2100
;WIPE_START
G1 F9600
G1 X115.2 Y106.3 E-.01247
G1 X115.2 Y105.59 E-.14753
;WIPE_END
G1 X116.827 Y104.829 Z.731 F12000
G1 Z.7 F720
G1 E.8 F1500
;TYPE:Internal infill
;WIDTH:0.4
G1 F1140
G1 X116.329 Y104.829 E.00403
G1 X116.329 Y105.171 E.00277
G1 X117.489 Y105.171 E.00939
G1 X117.831 Y104.829 E.00391
G1 X117.489 Y104.829 E.00277
G1 X117.831 Y105.171 E.00391
G1 X124.829 Y105.171 E.05663
G1 X125.171 Y104.829 E.00391
G1 X124.829 Y104.829 E.00277
G1 X125.171 Y105.171 E.00391
G1 X132.169 Y105.171 E.05663
G1 X132.511 Y104.829 E.00391
G1 X132.169 Y104.829 E.00277
G1 X132.511 Y105.171 E.00391
G1 X133.671 Y105.171 E.00939
G1 X133.671 Y104.829 E.00277
